public/nuxt_images/logo_text.svg

<svg width="186" height="59" viewBox="0 0 186 59" fill="none" xmlns="http://www.w3.org/2000/svg">
<path d="M143.469 29.5086H145.86L152.728 46.4699L159.558 29.5086H161.986L154.208 48.6328H151.248L143.469 29.5086Z" fill="#000091"/>
<path d="M138.218 40.5126V29.5086H140.419V40.4746C140.419 46.1664 137.155 49.3917 132.26 49.3917C127.328 49.3917 124.026 46.1664 124.026 40.4746V29.5086H126.265V40.5126C126.265 44.8383 128.656 47.2668 132.26 47.2668C135.789 47.2668 138.218 44.8383 138.218 40.5126Z" fill="#000091"/>
<path d="M109.662 28.7498C115.809 28.7498 119.945 33.6067 119.945 39.0708C119.945 44.5348 115.809 49.3918 109.662 49.3918C103.553 49.3918 99.4167 44.5348 99.4167 39.0708C99.4167 33.6067 103.553 28.7498 109.662 28.7498ZM109.7 47.2669C114.215 47.2669 117.554 43.3965 117.554 39.0708C117.554 34.6692 114.215 30.8747 109.7 30.8747C105.033 30.8747 101.731 34.7071 101.731 39.0708C101.731 43.4344 105.033 47.2669 109.7 47.2669Z" fill="#000091"/>
<path d="M79.7158 52.1617C79.7158 50.1886 80.7024 48.6328 82.6755 47.1909C81.7269 46.5459 81.2716 45.5214 81.2716 44.4968C81.2716 43.017 82.1822 41.7269 83.6621 40.8541C81.9546 39.602 80.968 37.6288 80.968 35.5039C80.968 31.8991 83.8139 28.7118 88.2155 28.7118C89.5435 28.7118 90.7578 29.0153 91.7823 29.5086H98.9539V31.4817H94.1728C95.0076 32.6201 95.5009 34.024 95.5009 35.5039C95.5009 39.1087 92.655 42.296 88.2155 42.296C87.0771 42.296 86.0526 42.0684 85.1419 41.7269C84.0036 42.3719 83.3965 43.3205 83.3965 44.1553C83.3965 45.0281 83.8139 45.7111 85.2178 45.7111H91.0613C96.2598 45.7111 98.4227 48.1016 98.4227 51.4028C98.4227 55.2732 94.4764 58.1191 88.8605 58.1191C83.4724 58.1191 79.7158 55.8424 79.7158 52.1617ZM88.2534 40.3988C91.4787 40.3988 93.2621 38.0842 93.2621 35.5039C93.2621 32.8478 91.4787 30.609 88.2534 30.609C84.9522 30.609 83.1688 32.8478 83.1688 35.5039C83.1688 38.1221 84.9522 40.3988 88.2534 40.3988ZM81.9546 51.972C81.9546 54.5522 84.7625 56.1839 88.8226 56.1839C93.2242 56.1839 96.1839 54.4005 96.1839 51.5166C96.1839 49.4297 95.0456 47.7601 90.9854 47.7601H84.6487C82.9032 48.9364 81.9546 50.2645 81.9546 51.972Z" fill="#000091"/>
<path d="M65.9257 49.2021C62.0933 49.2021 59.4751 47.0013 59.4751 43.4724C59.4751 40.5886 61.7138 38.4257 65.8119 37.7427L71.6554 36.7561V36.2628C71.6554 34.2518 70.1376 32.9616 67.9368 32.9616C66.0775 32.9616 64.6356 33.8344 63.6111 35.2383L60.0822 32.5442C61.7897 30.1917 64.5977 28.7498 68.0886 28.7498C73.6285 28.7498 76.4744 32.051 76.4744 36.2628V48.6329H71.6554V46.7736C70.4412 48.2534 68.1645 49.2021 65.9257 49.2021ZM64.2562 43.2447C64.2562 44.5348 65.2807 45.3696 66.9123 45.3696C69.1131 45.3696 70.7068 44.3451 71.6554 42.8273V40.1332L67.102 40.8921C65.0909 41.2336 64.2562 42.0684 64.2562 43.2447Z" fill="#000091"/>
<path d="M46.6593 41.6509V33.8343H43.0925V29.5086H46.6593V24.7275H51.5163V29.5086H57.3598V33.8343H51.5163V41.6509C51.5163 43.7759 52.6546 44.6106 54.5519 44.6106C55.88 44.6106 56.7527 44.4589 57.3978 44.1932V48.4051C56.4491 48.8225 55.3108 49.0123 53.7171 49.0123C48.936 49.0123 46.6593 46.3182 46.6593 41.6509Z" fill="#000091"/>
<path d="M30.5161 49.2021C26.6836 49.2021 24.0654 47.0013 24.0654 43.4724C24.0654 40.5886 26.3042 38.4257 30.4022 37.7427L36.2457 36.7561V36.2628C36.2457 34.2518 34.7279 32.9616 32.5271 32.9616C30.6678 32.9616 29.2259 33.8344 28.2014 35.2383L24.6725 32.5442C26.3801 30.1917 29.188 28.7498 32.6789 28.7498C38.2189 28.7498 41.0647 32.051 41.0647 36.2628V48.6329H36.2457V46.7736C35.0315 48.2534 32.7548 49.2021 30.5161 49.2021ZM28.8465 43.2447C28.8465 44.5348 29.871 45.3696 31.5026 45.3696C33.7034 45.3696 35.2971 44.3451 36.2457 42.8273V40.1332L31.6924 40.8921C29.6813 41.2336 28.8465 42.0684 28.8465 43.2447Z" fill="#000091"/>
<path d="M0 39.0706C0 33.4927 3.68066 28.7496 9.71389 28.7496C12.2941 28.7496 14.1534 29.5465 15.6333 31.0263V20.1741H20.4902V48.6327H15.6333V47.115C14.1534 48.5948 12.2941 49.3916 9.71389 49.3916C3.68066 49.3916 0 44.6485 0 39.0706ZM5.04667 39.0706C5.04667 42.4098 7.13364 44.8383 10.3969 44.8383C12.5598 44.8383 14.3432 43.9276 15.6333 42.1821V35.9591C14.3432 34.2137 12.5598 33.303 10.3969 33.303C7.13364 33.303 5.04667 35.7315 5.04667 39.0706Z" fill="#000091"/>
<path d="M179.017 11.7431C179.017 11.7431 179.017 11.7297 179.017 11.7207C179.008 10.9944 178.619 10.3218 177.994 9.96316L174.864 8.1518C174.573 7.98142 174.238 7.89175 173.894 7.88278C173.845 7.88278 173.8 7.88278 173.751 7.88727C173.509 7.90072 173.281 7.94555 173.067 8.03074C172.982 8.06661 172.901 8.10696 172.821 8.1518L170.916 9.25476L169.731 9.94074C169.66 9.98109 169.593 10.0259 169.53 10.0752C169.53 10.0752 169.503 10.0932 169.499 10.0932C169.248 10.277 169.052 10.5146 168.913 10.7792C168.904 10.7971 168.891 10.815 168.882 10.833C168.873 10.8509 168.864 10.8688 168.859 10.8868C168.734 11.1603 168.667 11.4696 168.667 11.7969V15.2672V15.321C168.667 15.3838 168.672 15.4511 168.681 15.5318C168.681 15.5721 168.69 15.6169 168.699 15.6663C168.734 15.9084 168.815 16.137 168.927 16.3433C169.11 16.684 169.383 16.9665 169.718 17.1593L172.794 18.9393C172.906 19.002 172.991 19.0424 173.076 19.0783C173.29 19.1679 173.518 19.2173 173.751 19.2262C173.76 19.2262 173.769 19.2262 173.777 19.2262C173.997 19.2307 174.22 19.2083 174.435 19.141C174.582 19.0962 174.73 19.0334 174.864 18.9527L177.971 17.1548C178.289 16.971 178.552 16.7065 178.736 16.3881C178.919 16.0698 179.017 15.7066 179.017 15.3434V11.7431Z" fill="#000091"/>
<path d="M168.667 18.4043V22.8378V24.1148L173.602 26.9722V21.2617L172.451 20.5965L168.667 18.4043Z" fill="#000091"/>
<path d="M178.359 9.68272C178.359 9.68272 178.4 9.71397 178.418 9.72736C178.418 9.72736 178.427 9.73183 178.431 9.73629C178.462 9.75862 178.494 9.78541 178.525 9.80773C178.525 9.80773 178.53 9.8122 178.534 9.81666C178.539 9.82112 178.548 9.82559 178.552 9.83005C178.588 9.86131 178.628 9.89256 178.66 9.92382C178.669 9.93275 178.678 9.94167 178.687 9.9506C178.709 9.97293 178.732 9.99525 178.754 10.0176C178.763 10.0265 178.772 10.0354 178.776 10.0399C178.808 10.0756 178.839 10.1113 178.871 10.1471C178.889 10.1649 178.902 10.1872 178.915 10.2051C178.924 10.2185 178.938 10.2319 178.947 10.2453C178.956 10.2542 178.965 10.2676 178.974 10.2765C179.005 10.3167 179.032 10.3614 179.059 10.406C179.086 10.4507 179.113 10.4908 179.14 10.5355C179.167 10.5846 179.189 10.6337 179.216 10.6828C179.238 10.7275 179.256 10.7677 179.274 10.8123C179.292 10.8525 179.306 10.8971 179.319 10.9373C179.319 10.9463 179.324 10.9507 179.328 10.9597C179.328 10.9686 179.333 10.9775 179.337 10.982C179.351 11.0222 179.364 11.0623 179.377 11.1025C179.395 11.1695 179.409 11.2365 179.418 11.3079C179.418 11.3079 179.418 11.3124 179.418 11.3168C179.418 11.3258 179.422 11.3392 179.422 11.3481C179.422 11.3704 179.431 11.3883 179.436 11.4106C179.449 11.5133 179.458 11.6204 179.458 11.7276V15.1968L180.149 15.5941V9.88363L175.179 7.02615V7.84321L178.207 9.58449C178.256 9.61128 178.306 9.64253 178.355 9.67825L178.359 9.68272Z" fill="#000091"/>
<path d="M161.984 7.02615V12.7595L166.954 15.6284V9.89506L161.984 7.02615Z" fill="#000091"/>
<path d="M178.969 16.8342C178.929 16.8925 178.884 16.9419 178.84 16.9958C178.809 17.0317 178.777 17.0676 178.746 17.1035C178.697 17.1573 178.639 17.2022 178.586 17.2516C178.559 17.274 178.532 17.3009 178.505 17.3279L179.352 17.8215C179.419 17.8619 179.464 17.9337 179.464 18.0145V22.8032L180.15 23.2026V17.4625L179.005 16.7938C179.005 16.7938 178.982 16.8207 178.973 16.8342H178.969Z" fill="#000091"/>
<path d="M172.779 6.64593V7.67751C172.779 7.67751 172.811 7.66858 172.828 7.65965C172.917 7.61946 173.015 7.5882 173.109 7.5614C173.185 7.53908 173.26 7.52121 173.341 7.50782C173.416 7.49442 173.488 7.48102 173.563 7.47209C173.59 7.47209 173.612 7.46316 173.639 7.45869V6.11451L168.704 3.25644V4.15405L172.668 6.44944C172.735 6.48963 172.779 6.56108 172.779 6.64146V6.64593Z" fill="#000091"/>
<path d="M161.984 20.3141L166.954 23.1686V17.4551L161.984 14.6006V20.3141Z" fill="#000091"/>
<path d="M185.53 20.314V14.6005L180.594 17.455V23.1685L185.53 20.314Z" fill="#000091"/>
<path d="M174.048 26.9723L179.018 24.1148V22.9138V18.4043L174.048 21.2618V26.9723Z" fill="#000091"/>
<path d="M167.4 15.6284L168.215 15.1533V11.7554C168.215 10.9754 168.585 10.2313 169.209 9.76061C169.209 9.76061 169.217 9.75613 169.222 9.75165C169.222 9.75165 169.226 9.75165 169.231 9.74716C169.24 9.74268 169.249 9.73372 169.253 9.73372C169.333 9.67544 169.391 9.6351 169.458 9.59475L172.335 7.92272V7.02618L167.4 9.89509V15.6284Z" fill="#000091"/>
<path d="M185.53 12.7595V7.02618L180.594 9.89509V15.6284L185.53 12.7595Z" fill="#000091"/>
<path d="M174.169 7.46644C174.218 7.47089 174.262 7.48426 174.311 7.48871C174.369 7.49762 174.431 7.51099 174.489 7.52435C174.543 7.53772 174.592 7.55554 174.641 7.57336C174.681 7.58672 174.721 7.59563 174.761 7.609V6.63336C174.761 6.55317 174.806 6.48189 174.872 6.44179L179.055 4.02718V3.25647L174.12 6.10767V7.45753C174.12 7.45753 174.155 7.46644 174.173 7.46644H174.169Z" fill="#000091"/>
<path d="M168.26 17.9037C168.273 17.8815 168.296 17.8637 168.318 17.8459C168.323 17.8459 168.327 17.837 168.332 17.8325L169.182 17.343C169.182 17.343 169.146 17.3074 169.124 17.2896C169.052 17.2273 168.981 17.165 168.914 17.0937C168.882 17.0626 168.855 17.027 168.829 16.9958C168.775 16.9335 168.726 16.8712 168.681 16.8045C168.672 16.7911 168.658 16.7778 168.645 16.7599L168.623 16.7733L167.4 17.4765V23.1688L168.22 22.697V18.0239C168.22 17.9883 168.233 17.9527 168.246 17.9216C168.246 17.9127 168.255 17.9082 168.26 17.8993V17.9037Z" fill="#000091"/>
<path d="M172.132 6.629L167.182 3.76953L162.227 6.629L167.182 9.49294L172.132 6.629Z" fill="#000091"/>
<path d="M178.847 2.86394L173.878 0L168.908 2.86394L173.878 5.72341L178.847 2.86394Z" fill="#000091"/>
<path d="M180.045 9.30052L180.371 9.49294L185.326 6.629L180.371 3.76953L179.396 4.33337L175.421 6.629L177.514 7.8417L180.045 9.30052Z" fill="#000091"/>
<path d="M180.264 16.1917L179.438 15.7158C179.433 15.7469 179.42 15.7825 179.415 15.8136C179.402 15.8892 179.384 15.9648 179.366 16.036C179.353 16.0805 179.335 16.125 179.321 16.165C179.299 16.2317 179.277 16.294 179.245 16.3607C179.236 16.3785 179.232 16.3918 179.228 16.4096L180.376 17.0679L185.328 14.2213L184.617 13.8121L180.492 16.1828C180.457 16.2006 180.421 16.2139 180.381 16.2139C180.34 16.2139 180.305 16.205 180.269 16.1828L180.264 16.1917Z" fill="#000091"/>
<path d="M175.068 19.3326C174.902 19.426 174.723 19.5016 174.544 19.5594C174.419 19.5994 174.29 19.6217 174.16 19.6395C174.115 19.6439 174.071 19.6439 174.026 19.6484C173.959 19.6528 173.896 19.6617 173.829 19.6617C173.793 19.6617 173.757 19.6617 173.722 19.6617C173.722 19.6617 173.717 19.6617 173.713 19.6617C173.57 19.6573 173.431 19.6395 173.292 19.6083C173.154 19.5772 173.02 19.5372 172.89 19.4838C172.787 19.4393 172.684 19.3904 172.581 19.337L169.585 17.6157L169.349 17.7536L168.875 18.0249L173.829 20.8715L174.366 20.5602L174.871 20.2711L175.881 19.6884L178.779 18.0249L178.305 17.7536L178.068 17.6157L175.072 19.337L175.068 19.3326Z" fill="#000091"/>
<path d="M168.256 15.7246C168.256 15.6935 168.247 15.6668 168.242 15.6357L167.29 16.1828C167.254 16.2006 167.218 16.2139 167.178 16.2139C167.138 16.2139 167.102 16.205 167.066 16.1828L162.938 13.8121L162.227 14.2213L167.182 17.0679L168.43 16.3518C168.354 16.1739 168.296 15.9693 168.26 15.7424C168.26 15.7424 168.26 15.7335 168.26 15.7291L168.256 15.7246Z" fill="#000091"/>
<script xmlns=""/></svg>

<svg xmlns="http://www.w3.org/2000/svg" width="186" height="59" fill="none" viewBox="0 0 186 59"><path fill="#000091" d="M143.469 29.509h2.391l6.868 16.96 6.83-16.96h2.428l-7.778 19.124h-2.96zM138.218 40.513V29.509h2.201v10.966c0 5.691-3.264 8.917-8.159 8.917-4.932 0-8.234-3.226-8.234-8.917V29.509h2.239v11.004c0 4.325 2.391 6.754 5.995 6.754 3.529 0 5.958-2.429 5.958-6.754M109.662 28.75c6.147 0 10.283 4.857 10.283 10.32 0 5.465-4.136 10.322-10.283 10.322-6.109 0-10.245-4.857-10.245-10.321s4.136-10.321 10.245-10.321m.038 18.517c4.515 0 7.854-3.87 7.854-8.196 0-4.402-3.339-8.196-7.854-8.196-4.667 0-7.969 3.832-7.969 8.196s3.302 8.196 7.969 8.196M79.716 52.162c0-1.973.986-3.53 2.96-4.971-.95-.645-1.404-1.67-1.404-2.694 0-1.48.91-2.77 2.39-3.643a6.6 6.6 0 0 1-2.694-5.35c0-3.605 2.846-6.792 7.248-6.792 1.328 0 2.542.303 3.566.797h7.172v1.973h-4.781a6.8 6.8 0 0 1 1.328 4.022c0 3.605-2.846 6.792-7.285 6.792a8.7 8.7 0 0 1-3.074-.57c-1.138.646-1.745 1.595-1.745 2.43 0 .872.417 1.555 1.82 1.555h5.844c5.199 0 7.362 2.39 7.362 5.692 0 3.87-3.947 6.716-9.562 6.716-5.389 0-9.145-2.277-9.145-5.957m8.537-11.763c3.226 0 5.01-2.315 5.01-4.895 0-2.656-1.784-4.895-5.01-4.895-3.3 0-5.084 2.239-5.084 4.895 0 2.618 1.783 4.895 5.084 4.895m-6.298 11.573c0 2.58 2.808 4.212 6.868 4.212 4.401 0 7.36-1.783 7.36-4.667 0-2.087-1.137-3.757-5.198-3.757H84.65c-1.746 1.176-2.694 2.505-2.694 4.212M65.926 49.202c-3.833 0-6.45-2.2-6.45-5.73 0-2.883 2.238-5.046 6.336-5.73l5.843-.986v-.493c0-2.011-1.517-3.301-3.718-3.301-1.86 0-3.301.872-4.326 2.276l-3.529-2.694c1.708-2.352 4.516-3.794 8.007-3.794 5.54 0 8.385 3.301 8.385 7.513v12.37h-4.819v-1.86c-1.214 1.48-3.49 2.43-5.73 2.43m-1.67-5.957c0 1.29 1.025 2.125 2.656 2.125 2.201 0 3.795-1.025 4.743-2.543v-2.694l-4.553.76c-2.011.34-2.846 1.175-2.846 2.352M46.66 41.65v-7.816h-3.567V29.51h3.566v-4.782h4.857v4.782h5.844v4.325h-5.844v7.817c0 2.125 1.139 2.96 3.036 2.96 1.328 0 2.2-.152 2.846-.418v4.212c-.949.417-2.087.607-3.68.607-4.782 0-7.059-2.694-7.059-7.361M30.516 49.202c-3.832 0-6.45-2.2-6.45-5.73 0-2.883 2.238-5.046 6.336-5.73l5.844-.986v-.493c0-2.011-1.518-3.301-3.719-3.301-1.86 0-3.301.872-4.326 2.276l-3.529-2.694c1.708-2.352 4.516-3.794 8.007-3.794 5.54 0 8.386 3.301 8.386 7.513v12.37h-4.82v-1.86c-1.213 1.48-3.49 2.43-5.729 2.43m-1.67-5.957c0 1.29 1.025 2.125 2.657 2.125 2.2 0 3.794-1.025 4.743-2.543v-2.694l-4.554.76c-2.01.34-2.846 1.175-2.846 2.352M0 39.07c0-5.577 3.68-10.32 9.714-10.32 2.58 0 4.44.797 5.92 2.276V20.174h4.856v28.459h-4.857v-1.518c-1.48 1.48-3.339 2.277-5.92 2.277C3.682 49.392 0 44.648 0 39.07m5.047 0c0 3.34 2.087 5.768 5.35 5.768 2.163 0 3.946-.91 5.236-2.656V35.96c-1.29-1.745-3.073-2.656-5.236-2.656-3.263 0-5.35 2.428-5.35 5.768M179.017 11.743v-.022a2.06 2.06 0 0 0-1.023-1.758l-3.13-1.811a2 2 0 0 0-.97-.27c-.049 0-.094 0-.143.005-.242.014-.47.059-.684.144a2 2 0 0 0-.246.12l-1.905 1.104-1.185.686q-.106.06-.201.134s-.027.018-.031.018a2 2 0 0 0-.586.686c-.009.018-.022.036-.031.054a2.186 2.186 0 0 0-.215.964v3.524c0 .063.005.13.014.21 0 .041.009.086.018.135.035.242.116.471.228.677.183.341.456.624.791.816l3.076 1.78c.112.063.197.103.282.14.214.089.442.138.675.147h.026c.22.005.443-.018.658-.085.147-.045.295-.108.429-.188l3.107-1.798a2.1 2.1 0 0 0 1.046-1.812zM168.667 18.404v5.711l4.935 2.857v-5.71l-1.151-.666z"/><path fill="#000091" d="m178.359 9.683.072.053c.031.023.063.05.094.072l.009.009.018.013c.036.031.076.063.108.094l.027.027.067.067.022.022.095.107q.026.029.044.058c.009.014.023.027.032.04q.013.017.027.032.046.06.085.129l.081.13c.027.049.049.098.076.147q.032.064.058.13c.018.04.032.084.045.124 0 .01.005.014.009.023q.002.014.009.022l.04.12q.027.1.041.206v.009c0 .009.004.022.004.031 0 .022.009.04.014.063q.02.155.022.317v3.469l.691.397v-5.71l-4.97-2.858v.817l3.028 1.741q.074.041.148.094zM161.984 7.026v5.733l4.97 2.87V9.894zM178.969 16.834c-.04.058-.085.108-.129.162l-.094.108c-.049.053-.107.098-.16.148q-.04.034-.081.076l.847.494c.067.04.112.112.112.193v4.788l.686.4v-5.74l-1.145-.67-.032.041zM172.779 6.646v1.032s.032-.01.049-.018a2 2 0 0 1 .281-.099q.112-.033.232-.053.111-.022.222-.036c.027 0 .049-.009.076-.013V6.115l-4.935-2.859v.898l3.964 2.295c.067.04.111.112.111.192zM161.984 20.314l4.97 2.855v-5.714l-4.97-2.854zM185.53 20.314v-5.713l-4.936 2.854v5.714z"/><path fill="#000091" d="m174.048 26.972 4.97-2.857v-5.711l-4.97 2.858zM167.4 15.628l.815-.475v-3.398c0-.78.37-1.524.994-1.994l.013-.01q0 .001.009-.004c.009-.004.018-.013.022-.013a3 3 0 0 1 .205-.14l2.877-1.671v-.897l-4.935 2.87zM185.53 12.76V7.025l-4.936 2.87v5.732zM174.169 7.466c.049.005.093.018.142.023a1.474 1.474 0 0 1 .33.085q.06.018.12.035v-.976c0-.08.045-.151.111-.191l4.183-2.415v-.77l-4.935 2.85v1.35s.035.01.053.01zM168.26 17.904c.013-.023.036-.04.058-.058.005 0 .009-.009.014-.014l.85-.489s-.036-.036-.058-.053a3 3 0 0 1-.21-.196c-.032-.031-.059-.067-.085-.098a2 2 0 0 1-.148-.191q-.015-.02-.036-.045l-.022.013-1.223.704v5.692l.82-.472v-4.673c0-.036.013-.071.026-.102 0-.01.009-.014.014-.023zM172.132 6.629l-4.95-2.86-4.955 2.86 4.955 2.864zM178.847 2.864 173.878 0l-4.97 2.864 4.97 2.86z"/><path fill="#000091" d="m180.045 9.3.326.193 4.955-2.864-4.955-2.86-.975.564-3.975 2.296 2.093 1.213zM180.264 16.192l-.826-.476c-.005.03-.018.067-.023.098a3 3 0 0 1-.049.222c-.013.044-.031.089-.045.129a2 2 0 0 1-.076.196.2.2 0 0 0-.017.049l1.148.658 4.952-2.847-.711-.409-4.125 2.37a.24.24 0 0 1-.111.032.2.2 0 0 1-.112-.031zM175.068 19.333a3 3 0 0 1-.524.226c-.125.04-.254.063-.384.08-.045.005-.089.005-.134.01-.067.004-.13.013-.197.013h-.116a2.499 2.499 0 0 1-.823-.178 5 5 0 0 1-.309-.147l-2.996-1.721-.236.138-.474.27 4.954 2.848.537-.312.505-.289 1.01-.583 2.898-1.663-.474-.271-.237-.138-2.996 1.721zM168.256 15.725c0-.031-.009-.058-.014-.09l-.952.548a.25.25 0 0 1-.112.03.2.2 0 0 1-.112-.03l-4.128-2.37-.711.408 4.955 2.847 1.248-.716a2.6 2.6 0 0 1-.17-.61v-.013z"/><script/></svg>
